!! 00000] TT[WS
!!!OTL: Baxian qinghe
!!!ARE: Asia, China, Shanxi Linxian
!! Ethnic Group: Han
!! WI, 260
!!!SCT: J0307
!!!YEM: Copyright 1995, estate of Helmut Schaffrath.
**kern
*ICvox
*Ivox
*M4/4
*k[]
*C:
{4ee
8ee
8gg
4.ee
8a
=1
4ee
8ee
8gg
4dd
4a
=2
4.cc
8e
4.g
8a
=3
8.cc
16dd
8b
8a
2g}
=4
{4gg
4ee
4dd
4ee
=5
4.g
8a
8cc
4cc
8dd
=6
4.ee
8g
8ee
8dd
8b
8a
=7
1g}
==
!!!AGN: Xiaodiao, Fengsuge
!!!ONB: ESAC (Essen Associative Code) Database: CHINA
!!!AMT: simple quadruple
!!!AIN: vox
!!!EED: Helmut Schaffrath
!!!EEV: 1.0
*-
